icons/src/scalable/default/hicolor/cozy.svg

<svg xmlns="http://www.w3.org/2000/svg" width="48" height="48" version="1">
 <rect style="opacity:0.2" width="32" height="40" x="8" y="5" rx="2" ry="2"/>
 <rect style="fill:#f06a05" width="32" height="40" x="8" y="4" rx="2" ry="2"/>
 <path style="opacity:0.7;stroke:#fafafa;stroke-width:0.33924195px;stroke-opacity:0.49710987" d="m 12,11.169621 h 2.072864 z m 2.376884,0 h 1.934674 z m 2.238693,0 h 1.713568 z m 1.989951,0 h 0.746231 z m 1.050251,0 h 1.658291 z m 1.98995,0 h 4.366834 z m 4.643215,0 h 3.344222 z m 3.620604,0 h 1.022613 z M 12,13.244177 h 3.233668 z m 3.592965,0 h 1.547738 z m 1.82412,0 h 0.77387 z m 1.07789,0 h 1.409548 z m 1.713567,0 h 1.437187 z m 1.713569,0 h 2.29397 z m 2.597989,0 h 2.984925 z m 3.261307,0 h 1.98995 z m 2.266332,0 h 0.497488 z M 12,15.304428 h 2.736181 z m 3.012563,0 h 4.477387 z m 4.753769,0 h 2.183417 z m 2.459798,0 h 2.045227 z m 2.321608,0 h 1.741206 z m 2.017588,0 2.736182,0.02861 z m 2.984925,0.02861 H 34 Z M 12,17.39329 h 3.786432 z m 4.090453,0 h 4.090451 z m 4.366833,0 h 1.630655 z m 1.907036,0 h 3.841708 z m 4.090452,0 h 2.625628 z m 2.929648,0 h 1.050251 z m 1.326633,0 h 0.580402 z m 0.884423,0 h 1.630653 z M 12,19.467847 h 1.409548 z m 1.851759,0 h 5.223618 z M 12,22.925441 h 2.072864 z m 2.376884,0 h 1.907036 z m 2.238693,0 h 1.713568 z m 1.989951,0 h 0.746231 z m 1.050251,0 h 1.658291 z m 1.98995,0 h 4.339196 z m 4.643215,0 h 3.316584 z m 3.592966,0 h 1.050251 z m 1.326632,0 H 33.69598 Z M 12,24.999998 h 3.482412 z m 3.758794,0 h 3.731156 z m 4.007538,0 h 1.437186 z m 1.713568,0 h 3.51005 z m 3.786431,0 h 4.422111 z m 4.726131,0 h 1.630654 z M 12,27.074555 h 3.786432 z m 4.090453,0 h 4.090451 z m 4.366833,0 h 1.630655 z m 1.907036,0 h 3.841708 z m 4.090452,0 h 2.625628 z m 2.929648,0 h 1.050251 z m 1.326633,0 h 0.580402 z m 0.884423,0 h 1.630653 z M 12,29.149112 h 3.233668 z m 3.592965,0 h 1.547738 z m 1.82412,0 h 0.77387 z m 1.07789,0 h 1.409548 z m 1.713567,0 h 1.437187 z m 1.713569,0 h 2.29397 z m 2.597989,0 h 2.984925 z m 3.261307,0 h 1.98995 z m 2.266332,0 h 0.497488 z M 12,32.592404 h 2.736181 z m 3.012563,0 h 4.477387 z m 4.753769,0 h 2.183417 z m 2.459798,0 h 2.045227 z m 2.321608,0 h 1.741206 z m 2.017588,0 2.736182,0.02861 z m 2.984925,0.02861 H 34 Z M 12,34.681266 h 3.233668 z m 3.592965,0 h 1.547738 z m 1.82412,0 h 0.77387 z m 1.07789,0 h 1.409548 z m 1.713567,0 h 1.437187 z m 1.713569,0 h 2.29397 z m 2.597989,0 h 2.984925 z m 3.261307,0 h 1.98995 z m 2.266332,0 h 0.497488 z M 12,36.755823 h 3.427136 z m 3.731155,0 h 1.07789 z m 1.354272,0 h 2.459799 z m 2.736181,0 h 3.620603 z m 3.924624,0 h 2.459798 z m 2.708542,0 h 0.525125 z m 0.801508,0 h 3.123115 z m 3.454773,0 h 1.630654 z M 12,38.830379 h 3.427136 z m 3.731155,0 h 1.54774 z m 1.824121,0 h 2.432161 z m 2.708543,0 h 2.625628 z m 2.929648,0 h 1.050252 z m 1.326633,0 h 0.580403 z m 0.884423,0 h 1.630653 z"/>
 <path style="opacity:0.2" d="m 24,13 c -0.106246,0 -0.211449,-0.0012 -0.318359,0.002 C 17.843141,13.17517 13.001649,17.981763 13,23.853516 V 26.115234 29 H 12.673828 C 12.30077,29 12,29.290996 12,29.666016 v 5.679687 C 12,35.720722 12.301144,35.983293 12.673828,36 H 13.197266 13.529297 14 v 1.322266 C 14,37.697292 14.30663,38 14.679688,38 h 2.673828 C 17.726573,38 18,37.697285 18,37.322266 V 28.689453 C 18,28.314434 17.726559,27.996742 17.353516,28 h -1.34375 v -0.978516 -0.90625 h -0.01953 V 23.853516 C 16.210992,19.358467 20,16 24,16 c 4,0 7.789008,3.358467 8.009766,7.853516 v 2.261718 h -0.01953 V 27.021484 28 h -1.34375 C 30.273441,27.996742 30,28.314434 30,28.689453 v 8.632813 C 30,37.697285 30.273427,38 30.646484,38 h 2.673828 C 33.69337,38 34,37.697292 34,37.322266 V 36 h 0.470703 0.332031 0.523438 C 35.698856,35.983293 36,35.720722 36,35.345703 V 29.666016 C 36,29.290996 35.69923,29 35.326172,29 H 35 V 26.115234 23.853516 C 34.998351,17.981763 30.156859,13.17517 24.318359,13.001953 24.211449,12.998753 24.106246,13 24,13 Z"/>
 <path style="fill:#ffffff" d="M 24 12 C 23.893754 12 23.788551 11.998753 23.681641 12.001953 C 17.843141 12.17517 13.001649 16.981763 13 22.853516 L 13 25.115234 L 13 28 L 12.673828 28 C 12.30077 28 12 28.290996 12 28.666016 L 12 34.345703 C 12 34.720722 12.301144 34.983293 12.673828 35 L 13.197266 35 L 13.529297 35 L 14 35 L 14 36.322266 C 14 36.697292 14.30663 37 14.679688 37 L 17.353516 37 C 17.726573 37 18 36.697285 18 36.322266 L 18 27.689453 C 18 27.314434 17.726559 26.996742 17.353516 27 L 16.009766 27 L 16.009766 26.021484 L 16.009766 25.115234 L 15.990234 25.115234 L 15.990234 22.853516 C 16.210992 18.358467 20 15 24 15 C 28 15 31.789008 18.358467 32.009766 22.853516 L 32.009766 25.115234 L 31.990234 25.115234 L 31.990234 26.021484 L 31.990234 27 L 30.646484 27 C 30.273441 26.996742 30 27.314434 30 27.689453 L 30 36.322266 C 30 36.697285 30.273427 37 30.646484 37 L 33.320312 37 C 33.69337 37 34 36.697292 34 36.322266 L 34 35 L 34.470703 35 L 34.802734 35 L 35.326172 35 C 35.698856 34.983293 36 34.720722 36 34.345703 L 36 28.666016 C 36 28.290996 35.69923 28 35.326172 28 L 35 28 L 35 25.115234 L 35 22.853516 C 34.998351 16.981763 30.156859 12.17517 24.318359 12.001953 C 24.211449 11.998753 24.106246 12 24 12 z"/>
 <path style="opacity:0.2;fill:#ffffff" d="M 10 4 C 8.892 4 8 4.892 8 6 L 8 7 C 8 5.892 8.892 5 10 5 L 38 5 C 39.108 5 40 5.892 40 7 L 40 6 C 40 4.892 39.108 4 38 4 L 10 4 z"/>
</svg>

<svg version="1" viewBox="0 0 48 48" xmlns="http://www.w3.org/2000/svg">
 <rect x="8" y="5" width="32" height="40" rx="2" ry="2" opacity=".2"/>
 <rect x="8" y="4" width="32" height="40" rx="2" ry="2" fill="#f06a05"/>
 <path d="m12 11.17h2.0729zm2.3769 0h1.9347zm2.2387 0h1.7136zm1.99 0h0.74623zm1.0503 0h1.6583zm1.99 0h4.3668zm4.6432 0h3.3442zm3.6206 0h1.0226zm-17.91 2.0746h3.2337zm3.593 0h1.5477zm1.8241 0h0.77387zm1.0779 0h1.4095zm1.7136 0h1.4372zm1.7136 0h2.294zm2.598 0h2.9849zm3.2613 0h1.99zm2.2663 0h0.49749zm-18.048 2.0603h2.7362zm3.0126 0h4.4774zm4.7538 0h2.1834zm2.4598 0h2.0452zm2.3216 0h1.7412zm2.0176 0 2.7362 0.02861zm2.9849 0.02861h4.4497zm-17.55 2.0603h3.7864zm4.0905 0h4.0905zm4.3668 0h1.6307zm1.907 0h3.8417zm4.0905 0h2.6256zm2.9296 0h1.0503zm1.3266 0h0.5804zm0.88442 0h1.6307zm-19.595 2.0746h1.4095zm1.8518 0h5.2236zm-1.8518 3.4576h2.0729zm2.3769 0h1.907zm2.2387 0h1.7136zm1.99 0h0.74623zm1.0503 0h1.6583zm1.99 0h4.3392zm4.6432 0h3.3166zm3.593 0h1.0503zm1.3266 0h2.4874zm-19.209 2.0746h3.4824zm3.7588 0h3.7312zm4.0075 0h1.4372zm1.7136 0h3.51zm3.7864 0h4.4221zm4.7261 0h1.6307zm-17.992 2.0746h3.7864zm4.0905 0h4.0905zm4.3668 0h1.6307zm1.907 0h3.8417zm4.0905 0h2.6256zm2.9296 0h1.0503zm1.3266 0h0.5804zm0.88442 0h1.6307zm-19.595 2.0746h3.2337zm3.593 0h1.5477zm1.8241 0h0.77387zm1.0779 0h1.4095zm1.7136 0h1.4372zm1.7136 0h2.294zm2.598 0h2.9849zm3.2613 0h1.99zm2.2663 0h0.49749zm-18.048 3.4433h2.7362zm3.0126 0h4.4774zm4.7538 0h2.1834zm2.4598 0h2.0452zm2.3216 0h1.7412zm2.0176 0 2.7362 0.02861zm2.9849 0.02861h4.4497zm-17.55 2.0603h3.2337zm3.593 0h1.5477zm1.8241 0h0.77387zm1.0779 0h1.4095zm1.7136 0h1.4372zm1.7136 0h2.294zm2.598 0h2.9849zm3.2613 0h1.99zm2.2663 0h0.49749zm-18.048 2.0746h3.4271zm3.7312 0h1.0779zm1.3543 0h2.4598zm2.7362 0h3.6206zm3.9246 0h2.4598zm2.7085 0h0.52512zm0.80151 0h3.1231zm3.4548 0h1.6307zm-18.711 2.0746h3.4271zm3.7312 0h1.5477zm1.8241 0h2.4322zm2.7085 0h2.6256zm2.9296 0h1.0503zm1.3266 0h0.5804zm0.88442 0h1.6307z" opacity=".7" stroke="#fafafa" stroke-opacity=".49711" stroke-width=".33924px"/>
 <path d="m24 13c-0.10625 0-0.21145-0.0012-0.31836 2e-3 -5.8385 0.17317-10.68 4.9798-10.682 10.852v5.1465h-0.32617c-0.37306 0-0.67383 0.291-0.67383 0.66602v5.6797c0 0.37502 0.30114 0.63759 0.67383 0.6543h1.3262v1.3223c0 0.37503 0.30663 0.67773 0.67969 0.67773h2.6738c0.37306 0 0.64648-0.30272 0.64648-0.67773v-8.6328c0-0.37502-0.27344-0.69271-0.64648-0.68945h-1.3438v-1.8848h-0.01953v-2.2617c0.22076-4.495 4.0098-7.8535 8.0098-7.8535s7.789 3.3585 8.0098 7.8535v2.2617h-0.01953v1.8848h-1.3438c-0.37304-0.003258-0.64649 0.31443-0.64649 0.68945v8.6328c0 0.37502 0.27343 0.67773 0.64648 0.67773h2.6738c0.37306 0 0.67969-0.30271 0.67969-0.67773v-1.3223h1.3262c0.37268-0.016707 0.67383-0.27928 0.67383-0.6543v-5.6797c0-0.37502-0.30077-0.66602-0.67383-0.66602h-0.32617v-5.1465c-0.001649-5.8718-4.8431-10.678-10.682-10.852-0.10691-0.0032-0.21211-0.001953-0.31836-0.001953z" opacity=".2"/>
 <path d="m24 12c-0.10625 0-0.21145-0.001247-0.31836 0.001953-5.8385 0.17322-10.68 4.9798-10.682 10.852v2.2617 2.8848h-0.32617c-0.37306 0-0.67383 0.291-0.67383 0.66602v5.6797c0 0.37502 0.30114 0.63759 0.67383 0.6543h0.52344 0.33203 0.4707v1.3223c0 0.37503 0.30663 0.67773 0.67969 0.67773h2.6738c0.37306 0 0.64648-0.30272 0.64648-0.67773v-8.6328c0-0.37502-0.27344-0.69271-0.64648-0.68945h-1.3438v-0.97852-0.90625h-0.019532v-2.2617c0.22076-4.495 4.0098-7.8535 8.0098-7.8535s7.789 3.3585 8.0098 7.8535v2.2617h-0.019532v0.90625 0.97852h-1.3438c-0.37304-0.003258-0.64648 0.31443-0.64648 0.68945v8.6328c0 0.37502 0.27343 0.67773 0.64648 0.67773h2.6738c0.37306 0 0.67969-0.30271 0.67969-0.67773v-1.3223h0.4707 0.33203 0.52344c0.37268-0.016707 0.67383-0.27928 0.67383-0.6543v-5.6797c0-0.37502-0.30077-0.66602-0.67383-0.66602h-0.32617v-2.8848-2.2617c-0.001649-5.8718-4.8431-10.678-10.682-10.852-0.10691-0.0032-0.21211-0.001953-0.31836-0.001953z" fill="#fff"/>
 <path d="m10 4c-1.108 0-2 0.892-2 2v1c0-1.108 0.892-2 2-2h28c1.108 0 2 0.892 2 2v-1c0-1.108-0.892-2-2-2h-28z" fill="#fff" opacity=".2"/>
</svg>
